src/icons/outline/ai/bot.svg

<svg width="24" height="24" viewBox="0 0 24 24" fill="none" xmlns="http://www.w3.org/2000/svg">
<g clip-path="url(#clip0_6406_1078)">
<path d="M8.2793 12.6602C8.8346 12.6602 9.28906 13.1073 9.28906 13.6533V14.9736C9.28901 15.5196 8.83457 15.9668 8.2793 15.9668C7.72411 15.9667 7.26958 15.5196 7.26953 14.9736V13.6533C7.26953 13.1073 7.72408 12.6603 8.2793 12.6602Z" fill="#3C3B44"/>
<path d="M15.71 12.6602C16.2653 12.6602 16.7197 13.1073 16.7197 13.6533V14.9736C16.7197 15.5196 16.2652 15.9668 15.71 15.9668C15.1549 15.9666 14.7012 15.5195 14.7012 14.9736V13.6533C14.7012 13.1074 15.1549 12.6604 15.71 12.6602Z" fill="#3C3B44"/>
<path fill-rule="evenodd" clip-rule="evenodd" d="M11.9951 3C12.4695 3.00009 12.8534 3.37725 12.8535 3.84375V7.61621H17.5879C19.4557 7.61621 22.9999 8.49033 23 11.8262V16.7803C23 16.82 22.9289 21 17.5879 21H6.40137C4.53349 20.9999 1 20.1161 1 16.7803V11.8262C1.00008 11.781 1.0641 7.61631 6.40137 7.61621H11.1367V3.84375C11.1368 3.37719 11.5206 3 11.9951 3ZM6.40137 9.30469C2.86894 9.30477 2.70616 11.5766 2.70605 11.8359V16.7803C2.70605 19.2614 6.24743 19.3026 6.40137 19.3125H17.5879C21.1216 19.3125 21.2731 17.0286 21.2832 16.7705V11.8262C21.2831 9.34418 17.7393 9.30469 17.5879 9.30469H6.40137Z" fill="#3C3B44"/>
</g>
<defs>
<clipPath id="clip0_6406_1078">
<rect width="24" height="24" fill="white"/>
</clipPath>
</defs>
</svg>

<svg xmlns="http://www.w3.org/2000/svg" width="24" height="24" fill="none" viewBox="0 0 24 24"><g fill="currentColor" clip-path="url(#a)"><path d="M8.28 12.66c.555 0 1.01.447 1.01.993v1.32a1.006 1.006 0 0 1-1.01.994c-.556 0-1.01-.447-1.01-.993v-1.32c0-.547.454-.994 1.01-.994m7.43 0c.555 0 1.01.447 1.01.993v1.32c0 .547-.455.994-1.01.994a1.004 1.004 0 0 1-1.009-.993v-1.32c0-.547.454-.994 1.009-.994"/><path fill-rule="evenodd" d="M11.995 3a.85.85 0 0 1 .859.844v3.772h4.734c1.868 0 5.412.874 5.412 4.21v4.954c0 .04-.071 4.22-5.412 4.22H6.4C4.533 21 1 20.116 1 16.78v-4.954c0-.045.064-4.21 5.401-4.21h4.736V3.844A.85.85 0 0 1 11.995 3M6.401 9.305c-3.532 0-3.695 2.272-3.695 2.53v4.945c0 2.481 3.541 2.523 3.695 2.532h11.187c3.534 0 3.685-2.283 3.695-2.542v-4.944c0-2.482-3.544-2.521-3.695-2.521z" clip-rule="evenodd"/></g><defs><clipPath id="a"><path fill="currentColor" d="M0 0h24v24H0z"/></clipPath></defs></svg>
